pics/addressbook/icons/scalable/online.svg

<?xml version="1.0" encoding="UTF-8" standalone="no"?>
<!-- Generator: Adobe Illustrator 12.0.0, SVG Export Plug-In . SVG Version: 6.00 Build 51448)  -->
<svg
   xmlns:dc="http://purl.org/dc/elements/1.1/"
   xmlns:cc="http://web.resource.org/cc/"
   xmlns:rdf="http://www.w3.org/1999/02/22-rdf-syntax-ns#"
   xmlns:svg="http://www.w3.org/2000/svg"
   xmlns="http://www.w3.org/2000/svg"
   xmlns:xlink="http://www.w3.org/1999/xlink"
   xmlns:sodipodi="http://sodipodi.sourceforge.net/DTD/sodipodi-0.dtd"
   xmlns:inkscape="http://www.inkscape.org/namespaces/inkscape"
   version="1.1"
   id="Í_xBC__xB2_ã_x5F_1"
   width="16.978"
   height="18.987"
   viewBox="0 0 16.978 18.987"
   style="overflow:visible;enable-background:new 0 0 16.978 18.987;"
   xml:space="preserve"
   sodipodi:version="0.32"
   inkscape:version="0.44.1"
   sodipodi:docname="online.svg"
   sodipodi:docbase="/home/mgoddard/depot/qtopia/4.3/pics/addressbook/icons/scalable"><metadata
   id="metadata214"><rdf:RDF><cc:Work
       rdf:about=""><dc:format>image/svg+xml</dc:format><dc:type
         rdf:resource="http://purl.org/dc/dcmitype/StillImage" /></cc:Work></rdf:RDF></metadata><defs
   id="defs212">
	<linearGradient
   y2="11.5205"
   x2="5.7031"
   y1="11.5205"
   x1="0.25"
   gradientUnits="userSpaceOnUse"
   id="XMLID_10_">
		<stop
   id="stop53"
   style="stop-color:#BAE5F3"
   offset="0.0056" />
		<stop
   id="stop55"
   style="stop-color:#B6E3F3"
   offset="0.152" />
		<stop
   id="stop57"
   style="stop-color:#A7DEF2"
   offset="0.3131" />
		<stop
   id="stop59"
   style="stop-color:#8DD6F1"
   offset="0.4813" />
		<stop
   id="stop61"
   style="stop-color:#67CDEF"
   offset="0.6543" />
		<stop
   id="stop63"
   style="stop-color:#00C1ED"
   offset="0.8292" />
		<stop
   id="stop65"
   style="stop-color:#00B5EB"
   offset="1" />
	</linearGradient>
	
	<linearGradient
   y2="10.8857"
   x2="16.728"
   y1="10.8857"
   x1="10.0498"
   gradientUnits="userSpaceOnUse"
   id="XMLID_11_">
		<stop
   id="stop70"
   style="stop-color:#BAE5F3"
   offset="0.0056" />
		<stop
   id="stop72"
   style="stop-color:#B6E3F3"
   offset="0.152" />
		<stop
   id="stop74"
   style="stop-color:#A7DEF2"
   offset="0.3131" />
		<stop
   id="stop76"
   style="stop-color:#8DD6F1"
   offset="0.4813" />
		<stop
   id="stop78"
   style="stop-color:#67CDEF"
   offset="0.6543" />
		<stop
   id="stop80"
   style="stop-color:#00C1ED"
   offset="0.8292" />
		<stop
   id="stop82"
   style="stop-color:#00B5EB"
   offset="1" />
	</linearGradient>
	
	
	<linearGradient
   y2="10.3516"
   x2="8.3564"
   y1="10.3516"
   x1="6.8809"
   gradientUnits="userSpaceOnUse"
   id="XMLID_12_">
		<stop
   id="stop89"
   style="stop-color:#BAE5F3"
   offset="0.0056" />
		<stop
   id="stop91"
   style="stop-color:#B6E3F3"
   offset="0.152" />
		<stop
   id="stop93"
   style="stop-color:#A7DEF2"
   offset="0.3131" />
		<stop
   id="stop95"
   style="stop-color:#8DD6F1"
   offset="0.4813" />
		<stop
   id="stop97"
   style="stop-color:#67CDEF"
   offset="0.6543" />
		<stop
   id="stop99"
   style="stop-color:#00C1ED"
   offset="0.8292" />
		<stop
   id="stop101"
   style="stop-color:#00B5EB"
   offset="1" />
	</linearGradient>
	
	<linearGradient
   y2="13.1152"
   x2="8.0088"
   y1="13.1152"
   x1="1.999"
   gradientUnits="userSpaceOnUse"
   id="XMLID_13_">
		<stop
   id="stop106"
   style="stop-color:#BAE5F3"
   offset="0.0056" />
		<stop
   id="stop108"
   style="stop-color:#B6E3F3"
   offset="0.152" />
		<stop
   id="stop110"
   style="stop-color:#A7DEF2"
   offset="0.3131" />
		<stop
   id="stop112"
   style="stop-color:#8DD6F1"
   offset="0.4813" />
		<stop
   id="stop114"
   style="stop-color:#67CDEF"
   offset="0.6543" />
		<stop
   id="stop116"
   style="stop-color:#00C1ED"
   offset="0.8292" />
		<stop
   id="stop118"
   style="stop-color:#00B5EB"
   offset="1" />
	</linearGradient>
	
	<linearGradient
   y2="13.0723"
   x2="13.8516"
   y1="13.0723"
   x1="7.2705"
   gradientUnits="userSpaceOnUse"
   id="XMLID_14_">
		<stop
   id="stop123"
   style="stop-color:#BAE5F3"
   offset="0.0056" />
		<stop
   id="stop125"
   style="stop-color:#B6E3F3"
   offset="0.152" />
		<stop
   id="stop127"
   style="stop-color:#A7DEF2"
   offset="0.3131" />
		<stop
   id="stop129"
   style="stop-color:#8DD6F1"
   offset="0.4813" />
		<stop
   id="stop131"
   style="stop-color:#67CDEF"
   offset="0.6543" />
		<stop
   id="stop133"
   style="stop-color:#00C1ED"
   offset="0.8292" />
		<stop
   id="stop135"
   style="stop-color:#00B5EB"
   offset="1" />
	</linearGradient>
	
	<radialGradient
   gradientUnits="userSpaceOnUse"
   r="5.759"
   cy="1.9644"
   cx="6.4048"
   id="XMLID_15_">
		<stop
   id="stop140"
   style="stop-color:#F5EACE"
   offset="0.0056" />
		<stop
   id="stop142"
   style="stop-color:#F8E6BF"
   offset="0.0796" />
		<stop
   id="stop144"
   style="stop-color:#F9E1AE"
   offset="0.1842" />
		<stop
   id="stop146"
   style="stop-color:#FAE0A7"
   offset="0.2528" />
		<stop
   id="stop148"
   style="stop-color:#E3C382"
   offset="0.563" />
		<stop
   id="stop150"
   style="stop-color:#D6B36E"
   offset="0.823" />
		<stop
   id="stop152"
   style="stop-color:#D2AD67"
   offset="1" />
	</radialGradient>
	
	<linearGradient
   y2="9.8213"
   x2="10.9531"
   y1="9.8213"
   x1="7.5957"
   gradientUnits="userSpaceOnUse"
   id="XMLID_16_">
		<stop
   id="stop157"
   style="stop-color:#BAE5F3"
   offset="0.0056" />
		<stop
   id="stop159"
   style="stop-color:#B6E3F3"
   offset="0.152" />
		<stop
   id="stop161"
   style="stop-color:#A7DEF2"
   offset="0.3131" />
		<stop
   id="stop163"
   style="stop-color:#8DD6F1"
   offset="0.4813" />
		<stop
   id="stop165"
   style="stop-color:#67CDEF"
   offset="0.6543" />
		<stop
   id="stop167"
   style="stop-color:#00C1ED"
   offset="0.8292" />
		<stop
   id="stop169"
   style="stop-color:#00B5EB"
   offset="1" />
	</linearGradient>
	
	<linearGradient
   y2="9.7329"
   x2="7.2617"
   y1="9.7329"
   x1="4.6396"
   gradientUnits="userSpaceOnUse"
   id="XMLID_17_">
		<stop
   id="stop174"
   style="stop-color:#BAE5F3"
   offset="0.0056" />
		<stop
   id="stop176"
   style="stop-color:#B6E3F3"
   offset="0.152" />
		<stop
   id="stop178"
   style="stop-color:#A7DEF2"
   offset="0.3131" />
		<stop
   id="stop180"
   style="stop-color:#8DD6F1"
   offset="0.4813" />
		<stop
   id="stop182"
   style="stop-color:#67CDEF"
   offset="0.6543" />
		<stop
   id="stop184"
   style="stop-color:#00C1ED"
   offset="0.8292" />
		<stop
   id="stop186"
   style="stop-color:#00B5EB"
   offset="1" />
	</linearGradient>
	
	
	
	<linearGradient
   y2="8.4351"
   x2="8.2383"
   y1="8.4351"
   x1="7.2861"
   gradientUnits="userSpaceOnUse"
   id="XMLID_18_">
		<stop
   id="stop195"
   style="stop-color:#BAE5F3"
   offset="0.0056" />
		<stop
   id="stop197"
   style="stop-color:#B6E3F3"
   offset="0.152" />
		<stop
   id="stop199"
   style="stop-color:#A7DEF2"
   offset="0.3131" />
		<stop
   id="stop201"
   style="stop-color:#8DD6F1"
   offset="0.4813" />
		<stop
   id="stop203"
   style="stop-color:#67CDEF"
   offset="0.6543" />
		<stop
   id="stop205"
   style="stop-color:#00C1ED"
   offset="0.8292" />
		<stop
   id="stop207"
   style="stop-color:#00B5EB"
   offset="1" />
	</linearGradient>
	
<linearGradient
   inkscape:collect="always"
   xlink:href="#XMLID_10_"
   id="linearGradient3120"
   gradientUnits="userSpaceOnUse"
   x1="0.25"
   y1="11.5205"
   x2="5.7031"
   y2="11.5205" /><linearGradient
   inkscape:collect="always"
   xlink:href="#XMLID_11_"
   id="linearGradient3122"
   gradientUnits="userSpaceOnUse"
   x1="10.0498"
   y1="10.8857"
   x2="16.728"
   y2="10.8857" /><linearGradient
   inkscape:collect="always"
   xlink:href="#XMLID_12_"
   id="linearGradient3124"
   gradientUnits="userSpaceOnUse"
   x1="6.8809"
   y1="10.3516"
   x2="8.3564"
   y2="10.3516" /><linearGradient
   inkscape:collect="always"
   xlink:href="#XMLID_13_"
   id="linearGradient3126"
   gradientUnits="userSpaceOnUse"
   x1="1.999"
   y1="13.1152"
   x2="8.0088"
   y2="13.1152" /><linearGradient
   inkscape:collect="always"
   xlink:href="#XMLID_14_"
   id="linearGradient3128"
   gradientUnits="userSpaceOnUse"
   x1="7.2705"
   y1="13.0723"
   x2="13.8516"
   y2="13.0723" /><linearGradient
   inkscape:collect="always"
   xlink:href="#XMLID_16_"
   id="linearGradient3130"
   gradientUnits="userSpaceOnUse"
   x1="7.5957"
   y1="9.8213"
   x2="10.9531"
   y2="9.8213" /><linearGradient
   inkscape:collect="always"
   xlink:href="#XMLID_17_"
   id="linearGradient3132"
   gradientUnits="userSpaceOnUse"
   x1="4.6396"
   y1="9.7329"
   x2="7.2617"
   y2="9.7329" /><linearGradient
   inkscape:collect="always"
   xlink:href="#XMLID_18_"
   id="linearGradient3134"
   gradientUnits="userSpaceOnUse"
   x1="7.2861"
   y1="8.4351"
   x2="8.2383"
   y2="8.4351" /><radialGradient
   inkscape:collect="always"
   xlink:href="#XMLID_15_"
   id="radialGradient3136"
   gradientUnits="userSpaceOnUse"
   cx="6.4048"
   cy="1.9644"
   r="5.759" /><linearGradient
   inkscape:collect="always"
   xlink:href="#XMLID_17_"
   id="linearGradient3143"
   gradientUnits="userSpaceOnUse"
   x1="4.6396"
   y1="9.7329"
   x2="7.2617"
   y2="9.7329"
   gradientTransform="matrix(0.971553,0,0,0.973247,0.125094,0.194094)" /><linearGradient
   inkscape:collect="always"
   xlink:href="#XMLID_16_"
   id="linearGradient3146"
   gradientUnits="userSpaceOnUse"
   x1="7.5957"
   y1="9.8213"
   x2="10.9531"
   y2="9.8213"
   gradientTransform="matrix(0.916634,0,0,0.966018,0.927859,0.245348)" /><linearGradient
   inkscape:collect="always"
   xlink:href="#XMLID_14_"
   id="linearGradient3149"
   gradientUnits="userSpaceOnUse"
   x1="7.2705"
   y1="13.0723"
   x2="13.8516"
   y2="13.0723" /><linearGradient
   inkscape:collect="always"
   xlink:href="#XMLID_13_"
   id="linearGradient3152"
   gradientUnits="userSpaceOnUse"
   x1="1.999"
   y1="13.1152"
   x2="8.0088"
   y2="13.1152" /><linearGradient
   inkscape:collect="always"
   xlink:href="#XMLID_11_"
   id="linearGradient3157"
   gradientUnits="userSpaceOnUse"
   x1="10.0498"
   y1="10.8857"
   x2="16.728"
   y2="10.8857" /><linearGradient
   inkscape:collect="always"
   xlink:href="#XMLID_10_"
   id="linearGradient3160"
   gradientUnits="userSpaceOnUse"
   x1="0.25"
   y1="11.5205"
   x2="5.7031"
   y2="11.5205" /></defs><sodipodi:namedview
   inkscape:window-height="617"
   inkscape:window-width="869"
   inkscape:pageshadow="2"
   inkscape:pageopacity="0.0"
   guidetolerance="10.0"
   gridtolerance="10.0"
   objecttolerance="10.0"
   borderopacity="1.0"
   bordercolor="#666666"
   pagecolor="#ffffff"
   id="base"
   inkscape:zoom="22.627417"
   inkscape:cx="7.4996839"
   inkscape:cy="9.7992208"
   inkscape:window-x="0"
   inkscape:window-y="506"
   inkscape:current-layer="Í_xBC__xB2_ã_x5F_1" />
<g
   id="g3162"><path
     style="fill:url(#linearGradient3160);stroke:#4b5354;stroke-width:0.5"
     d="M 0.472,15.192 C -0.122,14.787 0.519,12.814 1.902,10.786 C 3.285,8.758 4.888,7.443 5.482,7.848 C 6.076,8.252 5.435,10.226 4.052,12.253 C 2.668,14.281 1.065,15.598 0.472,15.192 z "
     id="path67" /><path
     style="fill:url(#linearGradient3157);stroke:#4b5354;stroke-width:0.5"
     d="M 16.604,13.954 C 16.109,14.475 14.267,13.521 12.491,11.826 C 10.716,10.132 9.678,8.336 10.175,7.816 C 10.673,7.295 12.513,8.249 14.289,9.943 C 16.063,11.638 17.102,13.435 16.604,13.954 z "
     id="path84" /><path
     style="fill:white;stroke:black;stroke-width:0.5"
     d="M 13.548,17.68 C 12.025,19.446 4.104,18.679 2.525,17.583 C 1.914,17.16 2.882,9.584 5.358,7.773 C 7.199,6.427 9.037,6.612 10.596,7.678 C 12.929,9.274 14.049,17.1 13.548,17.68 z "
     id="path86" /><polygon
     style="fill:url(#linearGradient3124);stroke:#4b5354;stroke-width:0.5"
     points="8.356,11.797 6.881,11.834 7.429,8.869 8.131,8.869 8.356,11.797 "
     id="polygon103" /><path
     style="fill:url(#linearGradient3152);stroke:#4b5354;stroke-width:0.5"
     d="M 7.485,12.251 C 7.485,12.251 5.747,8.612 5.833,7.551 C 2.85,9.394 1.009,16.275 2.563,17.583 C 3.475,18.351 8.008,18.679 8.008,18.679 L 7.485,12.251 z "
     id="path120" /><path
     style="fill:url(#linearGradient3149);stroke:#4b5354;stroke-width:0.5"
     d="M 7.39,12.092 C 7.39,12.092 10.206,8.639 10.065,7.406 C 13.111,9.144 14.415,15.94 13.628,17.489 C 12.83,19.059 7.272,18.702 7.272,18.702 L 7.39,12.092 z "
     id="path137" /><path
     style="fill:url(#linearGradient3146);stroke:#4b5354;stroke-width:0.47050101"
     d="M 10.291274,7.6392505 C 10.313273,7.6856194 10.967749,9.6872088 10.967749,9.6872088 L 10.072198,9.9393395 L 9.920037,11.112085 L 7.8906097,11.825973 C 7.8906097,11.825973 9.8320402,9.1587969 10.291274,7.6392505 z "
     id="path171" /><path
     style="fill:url(#linearGradient3143);stroke:#4b5354;stroke-width:0.48619986"
     d="M 5.7231823,7.5060999 C 5.6911211,7.5469763 4.6330999,9.3066073 4.6330999,9.3066073 L 5.5133269,9.7416488 L 5.4433751,10.93193 L 7.1805117,11.827318 C 7.1805117,11.827318 5.9019481,9.1002789 5.7231823,7.5060999 z "
     id="path188" /><ellipse
     style="fill:white;stroke:#888f95;stroke-width:0.5"
     cx="7.882"
     cy="13.572"
     rx="0.26199999"
     ry="0.25"
     id="ellipse190"
     sodipodi:cx="7.882"
     sodipodi:cy="13.572"
     sodipodi:rx="0.26199999"
     sodipodi:ry="0.25" /><ellipse
     style="fill:white;stroke:#888f95;stroke-width:0.5"
     cx="7.881"
     cy="16"
     rx="0.28600001"
     ry="0.25"
     id="ellipse192"
     sodipodi:cx="7.881"
     sodipodi:cy="16"
     sodipodi:rx="0.28600001"
     sodipodi:ry="0.25" /><polygon
     style="fill:url(#linearGradient3134);stroke:#4b5354;stroke-width:0.5"
     points="8.096,8.811 7.452,8.811 7.286,8.06 8.238,8.06 8.096,8.811 "
     id="polygon209" /><circle
     style="fill:url(#radialGradient3136);stroke:black;stroke-width:0.5"
     cx="8.0880003"
     cy="4.1539998"
     r="3.905"
     id="circle154"
     sodipodi:cx="8.0880003"
     sodipodi:cy="4.1539998"
     sodipodi:rx="3.905"
     sodipodi:ry="3.905" /></g>
</svg>

<?xml version="1.0" encoding="iso-8859-1"?>
<!-- Generator: Adobe Illustrator 12.0.0, SVG Export Plug-In . SVG Version: 6.00 Build 51448)  -->
<!DOCTYPE svg PUBLIC "-//W3C//DTD SVG 1.1//EN" "http://www.w3.org/Graphics/SVG/1.1/DTD/svg11.dtd" [
	<!ENTITY ns_svg "http://www.w3.org/2000/svg">
	<!ENTITY ns_xlink "http://www.w3.org/1999/xlink">
]>
<svg  version="1.1" id="&#xCD;_xBC__xB2_&#xE3;_x5F_1" xmlns="&ns_svg;" xmlns:xlink="&ns_xlink;" width="16.978" height="18.987"
	 viewBox="0 0 16.978 18.987" style="overflow:visible;enable-background:new 0 0 16.978 18.987;" xml:space="preserve">
<g>
	<linearGradient id="XMLID_10_" gradientUnits="userSpaceOnUse" x1="0.25" y1="11.5205" x2="5.7031" y2="11.5205">
		<stop  offset="0.0056" style="stop-color:#BAE5F3"/>
		<stop  offset="0.152" style="stop-color:#B6E3F3"/>
		<stop  offset="0.3131" style="stop-color:#A7DEF2"/>
		<stop  offset="0.4813" style="stop-color:#8DD6F1"/>
		<stop  offset="0.6543" style="stop-color:#67CDEF"/>
		<stop  offset="0.8292" style="stop-color:#00C1ED"/>
		<stop  offset="1" style="stop-color:#00B5EB"/>
	</linearGradient>
	<path style="fill:url(#XMLID_10_);stroke:#4B5354;stroke-width:0.5;" d="M0.472,15.192c-0.594-0.405,0.047-2.378,1.43-4.406
		s2.986-3.343,3.58-2.938c0.594,0.404-0.047,2.378-1.43,4.405C2.668,14.281,1.065,15.598,0.472,15.192z"/>
	<linearGradient id="XMLID_11_" gradientUnits="userSpaceOnUse" x1="10.0498" y1="10.8857" x2="16.728" y2="10.8857">
		<stop  offset="0.0056" style="stop-color:#BAE5F3"/>
		<stop  offset="0.152" style="stop-color:#B6E3F3"/>
		<stop  offset="0.3131" style="stop-color:#A7DEF2"/>
		<stop  offset="0.4813" style="stop-color:#8DD6F1"/>
		<stop  offset="0.6543" style="stop-color:#67CDEF"/>
		<stop  offset="0.8292" style="stop-color:#00C1ED"/>
		<stop  offset="1" style="stop-color:#00B5EB"/>
	</linearGradient>
	<path style="fill:url(#XMLID_11_);stroke:#4B5354;stroke-width:0.5;" d="M16.604,13.954c-0.495,0.521-2.337-0.433-4.113-2.128
		c-1.775-1.694-2.813-3.49-2.316-4.01c0.498-0.521,2.338,0.433,4.114,2.127C16.063,11.638,17.102,13.435,16.604,13.954z"/>
	<path style="fill:#FFFFFF;stroke:#000000;stroke-width:0.5;" d="M13.548,17.68c-1.523,1.766-9.444,0.999-11.023-0.097
		c-0.611-0.423,0.357-7.999,2.833-9.81c1.841-1.346,3.679-1.161,5.238-0.095C12.929,9.274,14.049,17.1,13.548,17.68z"/>
	<linearGradient id="XMLID_12_" gradientUnits="userSpaceOnUse" x1="6.8809" y1="10.3516" x2="8.3564" y2="10.3516">
		<stop  offset="0.0056" style="stop-color:#BAE5F3"/>
		<stop  offset="0.152" style="stop-color:#B6E3F3"/>
		<stop  offset="0.3131" style="stop-color:#A7DEF2"/>
		<stop  offset="0.4813" style="stop-color:#8DD6F1"/>
		<stop  offset="0.6543" style="stop-color:#67CDEF"/>
		<stop  offset="0.8292" style="stop-color:#00C1ED"/>
		<stop  offset="1" style="stop-color:#00B5EB"/>
	</linearGradient>
	<polygon style="fill:url(#XMLID_12_);stroke:#4B5354;stroke-width:0.5;" points="8.356,11.797 6.881,11.834 7.429,8.869 
		8.131,8.869 	"/>
	<linearGradient id="XMLID_13_" gradientUnits="userSpaceOnUse" x1="1.999" y1="13.1152" x2="8.0088" y2="13.1152">
		<stop  offset="0.0056" style="stop-color:#BAE5F3"/>
		<stop  offset="0.152" style="stop-color:#B6E3F3"/>
		<stop  offset="0.3131" style="stop-color:#A7DEF2"/>
		<stop  offset="0.4813" style="stop-color:#8DD6F1"/>
		<stop  offset="0.6543" style="stop-color:#67CDEF"/>
		<stop  offset="0.8292" style="stop-color:#00C1ED"/>
		<stop  offset="1" style="stop-color:#00B5EB"/>
	</linearGradient>
	<path style="fill:url(#XMLID_13_);stroke:#4B5354;stroke-width:0.5;" d="M7.485,12.251c0,0-1.738-3.639-1.652-4.7
		c-2.983,1.843-4.824,8.724-3.27,10.032c0.912,0.768,5.445,1.096,5.445,1.096L7.485,12.251z"/>
	<linearGradient id="XMLID_14_" gradientUnits="userSpaceOnUse" x1="7.2705" y1="13.0723" x2="13.8516" y2="13.0723">
		<stop  offset="0.0056" style="stop-color:#BAE5F3"/>
		<stop  offset="0.152" style="stop-color:#B6E3F3"/>
		<stop  offset="0.3131" style="stop-color:#A7DEF2"/>
		<stop  offset="0.4813" style="stop-color:#8DD6F1"/>
		<stop  offset="0.6543" style="stop-color:#67CDEF"/>
		<stop  offset="0.8292" style="stop-color:#00C1ED"/>
		<stop  offset="1" style="stop-color:#00B5EB"/>
	</linearGradient>
	<path style="fill:url(#XMLID_14_);stroke:#4B5354;stroke-width:0.5;" d="M7.39,12.092c0,0,2.816-3.453,2.675-4.686
		c3.046,1.738,4.35,8.534,3.563,10.083c-0.798,1.57-6.356,1.213-6.356,1.213L7.39,12.092z"/>
	<radialGradient id="XMLID_15_" cx="6.4048" cy="1.9644" r="5.759" gradientUnits="userSpaceOnUse">
		<stop  offset="0.0056" style="stop-color:#F5EACE"/>
		<stop  offset="0.0796" style="stop-color:#F8E6BF"/>
		<stop  offset="0.1842" style="stop-color:#F9E1AE"/>
		<stop  offset="0.2528" style="stop-color:#FAE0A7"/>
		<stop  offset="0.563" style="stop-color:#E3C382"/>
		<stop  offset="0.823" style="stop-color:#D6B36E"/>
		<stop  offset="1" style="stop-color:#D2AD67"/>
	</radialGradient>
	<circle style="fill:url(#XMLID_15_);stroke:#000000;stroke-width:0.5;" cx="8.088" cy="4.154" r="3.905"/>
	<linearGradient id="XMLID_16_" gradientUnits="userSpaceOnUse" x1="7.5957" y1="9.8213" x2="10.9531" y2="9.8213">
		<stop  offset="0.0056" style="stop-color:#BAE5F3"/>
		<stop  offset="0.152" style="stop-color:#B6E3F3"/>
		<stop  offset="0.3131" style="stop-color:#A7DEF2"/>
		<stop  offset="0.4813" style="stop-color:#8DD6F1"/>
		<stop  offset="0.6543" style="stop-color:#67CDEF"/>
		<stop  offset="0.8292" style="stop-color:#00C1ED"/>
		<stop  offset="1" style="stop-color:#00B5EB"/>
	</linearGradient>
	<path style="fill:url(#XMLID_16_);stroke:#4B5354;stroke-width:0.5;" d="M10.215,7.654c0.024,0.048,0.738,2.12,0.738,2.12
		l-0.977,0.261L9.81,11.249l-2.214,0.739C7.596,11.988,9.714,9.227,10.215,7.654z"/>
	<linearGradient id="XMLID_17_" gradientUnits="userSpaceOnUse" x1="4.6396" y1="9.7329" x2="7.2617" y2="9.7329">
		<stop  offset="0.0056" style="stop-color:#BAE5F3"/>
		<stop  offset="0.152" style="stop-color:#B6E3F3"/>
		<stop  offset="0.3131" style="stop-color:#A7DEF2"/>
		<stop  offset="0.4813" style="stop-color:#8DD6F1"/>
		<stop  offset="0.6543" style="stop-color:#67CDEF"/>
		<stop  offset="0.8292" style="stop-color:#00C1ED"/>
		<stop  offset="1" style="stop-color:#00B5EB"/>
	</linearGradient>
	<path style="fill:url(#XMLID_17_);stroke:#4B5354;stroke-width:0.5;" d="M5.762,7.513C5.729,7.555,4.64,9.363,4.64,9.363
		l0.906,0.447l-0.072,1.223l1.788,0.92C7.262,11.953,5.946,9.151,5.762,7.513z"/>
	<ellipse style="fill:#FFFFFF;stroke:#888F95;stroke-width:0.5;" cx="7.882" cy="13.572" rx="0.262" ry="0.25"/>
	<ellipse style="fill:#FFFFFF;stroke:#888F95;stroke-width:0.5;" cx="7.881" cy="16" rx="0.286" ry="0.25"/>
	<linearGradient id="XMLID_18_" gradientUnits="userSpaceOnUse" x1="7.2861" y1="8.4351" x2="8.2383" y2="8.4351">
		<stop  offset="0.0056" style="stop-color:#BAE5F3"/>
		<stop  offset="0.152" style="stop-color:#B6E3F3"/>
		<stop  offset="0.3131" style="stop-color:#A7DEF2"/>
		<stop  offset="0.4813" style="stop-color:#8DD6F1"/>
		<stop  offset="0.6543" style="stop-color:#67CDEF"/>
		<stop  offset="0.8292" style="stop-color:#00C1ED"/>
		<stop  offset="1" style="stop-color:#00B5EB"/>
	</linearGradient>
	<polygon style="fill:url(#XMLID_18_);stroke:#4B5354;stroke-width:0.5;" points="8.096,8.811 7.452,8.811 7.286,8.06 8.238,8.06 	
		"/>
</g>
</svg>
